packages/amis-editor/src/icons/other/+fx.svg

<?xml version="1.0" encoding="UTF-8"?>
<svg viewBox="0 0 16 16" version="1.1" xmlns="http://www.w3.org/2000/svg" xmlns:xlink="http://www.w3.org/1999/xlink">
    <g stroke="none" stroke-width="1" fill="none" fill-rule="evenodd">
        <g>
            <rect x="0" y="0" width="16" height="16"></rect>
            <path d="M9.89726996,1.42896935 C10.7622099,0.875052946 11.5432726,0.94041116 12.2245758,1.01677633 C12.5114403,1.04904331 13.1427595,1.10712387 13.0775631,1.72880092 C13.0264925,2.22571234 12.2929786,2.16645279 12.0985292,2.17516075 C10.969708,2.22571234 10.2688899,1.60213545 9.57889382,4.10820386 L9.01001898,6.66018234 L9.89726996,6.65262698 C10.1971738,6.65262698 10.440574,6.89355373 10.440574,7.1904099 C10.440574,7.48726607 10.1971738,7.72819282 9.89726996,7.72819282 L8.77857147,7.73574818 L7.23361155,13.8963048 C7.23361155,13.8963048 7.09235251,15.042858 6.38062427,14.9987598 C6.35250991,14.9970159 6.32580901,14.9939663 6.30045749,14.9897032 L6.36964031,14.9691045 C6.31633924,14.9895282 6.2597435,15 6.20266347,15 L4.96959782,15 C4.71186493,15 4.50293115,14.7910662 4.50293115,14.5333333 L4.50293115,14.5005208 C4.5022854,14.259116 4.6858559,14.0570646 4.92622202,14.0346853 C5.29023392,14.0001846 5.620688,13.9495418 5.91758425,13.8827569 C5.92851129,13.830951 5.93837482,13.8005794 5.93837482,13.8005794 L7.47138205,7.73574818 L6.2633946,7.73574818 C5.97978992,7.73574818 5.75377545,7.51848389 5.72987008,7.2442146 C5.75377545,6.74084978 5.97978992,6.66018234 6.2633946,6.66018234 L7.70500277,6.66018234 L8.29126334,4.07593689 C8.53249032,2.94013936 9.03015678,1.98503689 9.89726996,1.42896935 Z M14.7815274,5.87796146 C14.9187471,5.96723342 14.9900301,6.07048774 14.9989404,6.18664885 C15.0069598,6.30280996 14.9695362,6.41681994 14.8839967,6.52975435 L13.2738929,8.6378634 L14.8626118,11.2676219 C14.9125099,11.3461382 14.9249844,11.440788 14.8964712,11.5440423 C14.8715222,11.6494478 14.7592515,11.7225862 14.6104483,11.8193872 C14.4491706,11.9215659 14.3092778,11.9118858 14.2094817,11.8785433 C14.1123587,11.8441252 14.0250371,11.7666844 13.951972,11.6494478 L12.6118524,9.50907173 L10.98571,11.6386921 C10.7914639,11.8925256 10.5713778,11.9301704 10.3201054,11.7505509 C10.2167451,11.6774125 10.0278453,11.4063699 10.0055693,11.2837554 C9.98418444,11.1622164 10.0242811,11.0342241 10.1276414,10.8976272 L11.925754,8.53568465 L10.6159296,6.44370909 C10.5615764,6.34798373 10.5562302,6.23612488 10.5989999,6.10920811 C10.6399876,5.98229134 10.7371107,5.90700173 10.840471,5.83278769 C10.9892741,5.7316845 11.1256028,5.7284578 11.22629,5.7381379 C11.3278682,5.74566686 11.419645,5.81557864 11.5042935,5.94464654 L12.5931407,7.65802292 L13.9109843,5.92528635 C14.0250371,5.772556 14.1542374,5.71877771 14.2789826,5.67575508 C14.4028367,5.63273244 14.6478719,5.78761392 14.7815274,5.87796146 Z" fill="currentColor" fill-rule="nonzero"></path>
            <rect fill="currentColor" x="0.897847116" y="6.66018234" width="4.5" height="1" rx="0.5"></rect>
            <rect fill="currentColor" transform="translate(3.147847, 7.160182) rotate(-270.000000) translate(-3.147847, -7.160182) " x="0.897847116" y="6.66018234" width="4.5" height="1" rx="0.5"></rect>
        </g>
    </g>
</svg>

<svg viewBox="0 0 16 16" xmlns="http://www.w3.org/2000/svg"><g fill="none" fill-rule="evenodd"><path d="M0 0h16v16H0z"/><path d="M9.897 1.429c.865-.554 1.646-.489 2.328-.412.286.032.918.09.853.712-.052.497-.785.437-.98.446-1.128.05-1.83-.573-2.52 1.933L9.01 6.66l.887-.007c.3 0 .544.24.544.537a.54.54 0 0 1-.544.538l-1.118.008-1.545 6.16S7.092 15.043 6.38 15a.771.771 0 0 1-.08-.01l.069-.02a.467.467 0 0 1-.167.031H4.97a.467.467 0 0 1-.467-.467v-.032c0-.242.183-.444.423-.466a7.96 7.96 0 0 0 .992-.152.71.71 0 0 1 .02-.082l1.533-6.065H6.263a.535.535 0 0 1-.533-.492c.024-.503.25-.584.533-.584h1.442l.586-2.584c.241-1.136.74-2.091 1.606-2.647Zm4.885 4.449c.137.09.208.192.217.309a.502.502 0 0 1-.115.343l-1.61 2.108 1.589 2.63c.05.078.062.173.033.276-.024.105-.137.179-.286.275a.452.452 0 0 1-.4.06.52.52 0 0 1-.258-.23l-1.34-2.14-1.626 2.13c-.195.254-.415.291-.666.112-.103-.074-.292-.345-.314-.467-.022-.122.018-.25.122-.386l1.798-2.362-1.31-2.092a.397.397 0 0 1-.017-.335c.041-.127.138-.202.241-.276a.556.556 0 0 1 .386-.095c.102.008.194.078.278.207l1.09 1.713 1.317-1.733a.694.694 0 0 1 .368-.25c.124-.042.369.113.503.203Z" fill="currentColor" fill-rule="nonzero"/><rect fill="currentColor" x=".898" y="6.66" width="4.5" height="1" rx=".5"/><rect fill="currentColor" transform="rotate(90 3.148 7.16)" x=".898" y="6.66" width="4.5" height="1" rx=".5"/></g></svg>
